X: 30155
T: Old Court, The
R: hornpipe
M: 4/4
K: Aminor
AB|c3d efec|dedB G2AB|cBAc BAGB|AGFG E2AB|
c3d efec|dedB G2AB|cBAe dcBc|A2(3BAG A2:|
|:AB|c3d ede^f|gage d2cd|ed (3e^fg aged|e2a2 a3g|
^fe^fg age^c|dedB G2AB|cBAe dcBc|A2(3BAG A2:|

